X: 7208
T: Cissie's
R: reel
M: 4/4
K: Aminor
|:aeed eede|efff ^gege|^gaed eede|edcB AaaA|
aeed eede|efff ^gege|^gaed eede|1 edcB AaaA:|2 edcB A2AG||
|:EABG ABcA|BFFF AEEE|EAAG ABcA|_E2EG D2AG|
EABG ABcA|BFFF AEEE|EGcd edcA|1 dcAG A_BAG:|2 dcAG AaaA||

